build/documents/AddFromTemplateOutline.svg

<svg xmlns="http://www.w3.org/2000/svg" fill="none" viewBox="0 0 24 24" focusable="false"><path d="M0 0H24V24H0z"/><path fill="#74767B" fill-rule="evenodd" d="M7 3C5.34315 3 4 4.34315 4 6L4 18C4 19.6569 5.34315 21 7 21L17 21C18.6569 21 20 19.6569 20 18L20 9.2997C20 8.47047 19.6568 7.67823 19.0518 7.11108L15.5321 3.81139C14.9761 3.2901 14.2425 3 13.4803 3L7 3ZM13.4803 4.3L7 4.3C6.06112 4.3 5.3 5.06112 5.3 6L5.3 18C5.3 18.9389 6.06112 19.7 7 19.7L17 19.7C17.9389 19.7 18.7 18.9389 18.7 18L18.7 9.2997C18.7 9.19933 18.6911 9.09993 18.6738 9.00251L15.9996 9.00252C14.9226 9.00253 14.0496 8.12948 14.0496 7.05252L14.0496 4.39813C13.8684 4.33375 13.676 4.3 13.4803 4.3ZM15.3496 5.42216L17.7819 7.70252L15.9996 7.70252C15.6406 7.70252 15.3496 7.41151 15.3496 7.05252L15.3496 5.42216ZM12.06 9.97605C12.4111 9.9894 12.6886 10.2782 12.688 10.6295L12.6819 14.2215L14.0719 12.7136C14.3214 12.4523 14.7315 12.4569 14.9928 12.7064C15.2441 12.9555 15.2495 13.3659 15 13.6272L12.4476 16.255C12.1567 16.5548 11.677 16.5377 11.4083 16.2179L8.93085 13.418C8.81555 13.2838 8.77092 13.1321 8.77662 12.9722C8.78303 12.7923 8.85903 12.6249 9.00357 12.5C9.28194 12.2698 9.69097 12.3043 9.92156 12.5727L11.3823 14.1822C11.3823 14.1822 11.3727 12.3271 11.3839 10.6214C11.3863 10.2538 11.6928 9.96208 12.06 9.97605Z"/></svg>

<svg xmlns="http://www.w3.org/2000/svg" fill="none" viewBox="0 0 24 24" focusable="false"><path fill="#74767B" fill-rule="evenodd" d="M7 3C5.34 3 4 4.34 4 6v12c0 1.65 1.34 3 3 3h10c1.65 0 3-1.35 3-3V9.29c0-.82-.35-1.62-.95-2.18l-3.52-3.3c-.56-.52-1.29-.81-2.05-.81zm6.48 1.3H7c-.94 0-1.7.76-1.7 1.7v12c0 .93.76 1.7 1.7 1.7h10c.93 0 1.7-.77 1.7-1.7V9.29c0-.1-.01-.2-.03-.29h-2.68c-1.07 0-1.95-.88-1.95-1.95V4.39c-.18-.06-.37-.09-.56-.09m1.86 1.12 2.44 2.28h-1.79c-.35 0-.65-.29-.65-.65zm-2.66 5.2c0-.35-.27-.64-.62-.65a.656.656 0 0 0-.68.65c-.01 1.7 0 3.56 0 3.56l-1.46-1.61A.65.65 0 0 0 9 12.5c-.15.12-.22.29-.23.47 0 .16.04.31.16.44l2.47 2.8c.27.32.75.34 1.04.04L15 13.62c.24-.26.24-.67-.01-.92a.65.65 0 0 0-.92.01l-1.39 1.51z"/></svg>
